images/illustration-books.svg

<svg xmlns="http://www.w3.org/2000/svg" width="94" height="72" viewBox="0 0 94 72"><defs><linearGradient id="a" x1="50%" x2="50%" y1="0%" y2="100%"><stop offset="0%" stop-color="#F5FAFD"/><stop offset="100%" stop-color="#C5ECFF"/></linearGradient></defs><g fill="none" fill-rule="evenodd"><path fill="url(#a)" d="M89.675 43c0-23.448-19.11-42.458-42.68-42.458C23.422.542 4.312 19.552 4.312 43a42.106 42.106 0 0 0 3.803 17.514h77.756A42.09 42.09 0 0 0 89.675 43"/><path d="M8.116 60.514c6.706 14.707 21.586 24.944 38.878 24.944s32.172-10.237 38.878-24.944H8.116z"/><path fill="#D18660" d="M68.595 60.441h5.081v-6.323h-5.081zm-25.406 0h5.081v-6.323h-5.081z"/><path fill="#F0F0F0" d="M58.198 35.836c-9.135 0-16.539 7.365-16.539 16.452v1.062c0 .586.478 1.061 1.067 1.061h5.335v5.838h20.274v-5.838h5.335c.589 0 1.067-.475 1.067-1.061v-1.062c0-9.087-7.404-16.452-16.539-16.452"/><path fill="#FFF" d="M58.198 35.836c-9.135 0-16.539 7.365-16.539 16.452v1.062c0 .19.05.367.138.521 1.05-8.079 7.993-14.32 16.401-14.32s15.35 6.241 16.401 14.32a1.05 1.05 0 0 0 .138-.521v-1.062c0-9.087-7.404-16.452-16.539-16.452"/><path d="M58.198 35.836c-9.135 0-16.539 7.365-16.539 16.452v1.062c0 .586.478 1.061 1.067 1.061h5.335v5.838h20.274v-5.838h5.335c.589 0 1.067-.475 1.067-1.061v-1.062c0-9.087-7.404-16.452-16.539-16.452z"/><path fill="#D18660" d="M61.933 38.489l-3.735 3.716-3.735-3.716v-5.837h7.47z"/><path fill="#BD704A" d="M54.463 36.352c1.185.35 2.436.545 3.735.545s2.55-.194 3.735-.545v-3.7h-7.47v3.7z"/><path d="M61.933 38.489l-3.735 3.716-3.735-3.716v-5.837h7.47zM48.061 51.96v3.716m20.274-3.715v3.715"/><path fill="#FFF" d="M58.198 42.205c3.739 2.322 2.558 1.6 3.408 2.124.5.308 1.159.16 1.473-.334 1.725-2.713 2.587-6.565 2.587-6.565l-3.733-2.656c-.566 2.845-1.494 5.499-3.735 7.43"/><path d="M58.198 42.205c3.739 2.322 2.558 1.6 3.408 2.124.5.308 1.159.16 1.473-.334 1.725-2.713 2.587-6.565 2.587-6.565l-3.733-2.656c-.566 2.845-1.494 5.499-3.735 7.43z"/><path fill="#FFF" d="M58.198 42.205c-3.739 2.322-2.558 1.6-3.408 2.124-.5.308-1.159.16-1.473-.334-1.725-2.713-2.587-6.565-2.587-6.565l3.733-2.656c.566 2.845 1.494 5.499 3.735 7.43"/><path d="M58.198 42.205c-3.739 2.322-2.558 1.6-3.408 2.124-.5.308-1.159.16-1.473-.334-1.725-2.713-2.587-6.565-2.587-6.565l3.733-2.656c.566 2.845 1.494 5.499 3.735 7.43z"/><path fill="#C08DF2" d="M58.198 41.79c-.992-.542-4.027-1.883-5.873-2.22-.565-.104-1.135.238-1.28.791-.363 1.39-.324 3.43.041 5.659a1.15 1.15 0 0 0 1.6.86c1.863-.833 4.583-2.117 5.512-2.822V41.79zm0 0c.992-.542 4.027-1.883 5.873-2.22.565-.104 1.135.238 1.28.791.363 1.39.324 3.43-.041 5.659a1.15 1.15 0 0 1-1.6.86c-1.863-.833-4.583-2.117-5.512-2.822V41.79z"/><path stroke="#9164BE" stroke-linecap="round" stroke-linejoin="round" stroke-width="1.27" d="M54.463 43.266h7.47"/><path fill="#AB77DE" d="M59.265 45.389h-2.134a.532.532 0 0 1-.534-.53v-3.185c0-.293.24-.53.534-.53h2.134c.295 0 .534.237.534.53v3.184c0 .293-.24.53-.534.53"/><path d="M58.198 45.389v14.86"/><path d="M5.38 60.514h83.228m-88.03 0h2.668m87.496 0h2.668" stroke="#008BCC" stroke-linecap="round" stroke-linejoin="round"/><path fill="#66EED1" d="M45.927 67.352c0 .586-.478 1.061-1.067 1.061H18.718a1.065 1.065 0 0 1-1.067-1.061V65.76c0-.586.478-1.062 1.067-1.062H44.86c.59 0 1.067.476 1.067 1.062v1.592z"/><path fill="#006898" d="M43.793 60.983c0 .586-.478 1.062-1.067 1.062H20.852a1.065 1.065 0 0 1-1.067-1.062v-1.592c0-.586.478-1.061 1.067-1.061h21.874c.59 0 1.067.475 1.067 1.061v1.592z"/><path fill="#804BB5" d="M43.793 54.614c0 .586-.478 1.062-1.067 1.062H21.92a1.065 1.065 0 0 1-1.067-1.062V51.43c0-.586.478-1.061 1.067-1.061h20.807c.59 0 1.067.475 1.067 1.061v3.184z"/><path fill="#00B8F0" d="M43.793 46.654c0 .586-.478 1.061-1.067 1.061H21.92a1.065 1.065 0 0 1-1.067-1.061v-3.185c0-.586.478-1.061 1.067-1.061h20.807c.59 0 1.067.475 1.067 1.061v3.185z"/><path fill="#020202" d="M16.584 69.475c0 .88 6.688 1.592 14.938 1.592s14.939-.712 14.939-1.592c0-.88-6.688-1.592-14.939-1.592-8.25 0-14.938.712-14.938 1.592" opacity=".15"/><path fill="#35C4A5" d="M44.86 66.821H18.718a1.065 1.065 0 0 1-1.067-1.061v1.592c0 .586.478 1.061 1.067 1.061H44.86c.59 0 1.067-.475 1.067-1.061V65.76c0 .586-.478 1.061-1.067 1.061"/><path fill="#0DB2E5" d="M42.726 58.33H20.852c-.589 0-1.067.475-1.067 1.061v1.592c0-.586.478-1.061 1.067-1.061h21.874c.59 0 1.067.475 1.067 1.061v-1.592c0-.586-.478-1.061-1.067-1.061"/><path fill="#66EED1" d="M42.726 50.369H21.92c-.589 0-1.067.475-1.067 1.061v2.123c0-.586.478-1.061 1.067-1.061h20.807c.59 0 1.067.475 1.067 1.061V51.43c0-.586-.478-1.061-1.067-1.061"/><path fill="#4ACFFF" d="M42.726 42.408H21.92c-.589 0-1.067.475-1.067 1.061v2.123c0-.586.478-1.061 1.067-1.061h20.807c.59 0 1.067.475 1.067 1.061V43.47c0-.586-.478-1.061-1.067-1.061"/><path d="M43.793 46.654c0 .586-.478 1.061-1.067 1.061H21.92a1.065 1.065 0 0 1-1.067-1.061v-3.185c0-.586.478-1.061 1.067-1.061h20.807c.59 0 1.067.475 1.067 1.061v3.185z"/><path fill="#B973FF" d="M43.793 63.637c0 .586-.478 1.061-1.067 1.061H20.852a1.065 1.065 0 0 1-1.067-1.061v-.53c0-.587.478-1.062 1.067-1.062h21.874c.59 0 1.067.475 1.067 1.061v.53z"/><path fill="#35C4A5" d="M42.726 57.268c0 .586-.478 1.062-1.067 1.062H20.852a1.065 1.065 0 0 1-1.067-1.062v-.53c0-.587.478-1.062 1.067-1.062H41.66c.59 0 1.067.475 1.067 1.061v.531z"/><path fill="#00DFEB" d="M41.66 49.307c0 .586-.479 1.062-1.068 1.062h-19.74a1.065 1.065 0 0 1-1.067-1.062v-.53c0-.586.478-1.062 1.067-1.062h19.74c.59 0 1.067.476 1.067 1.062v.53z"/><path fill="#804BB5" d="M40.059 41.346c0 .586-.478 1.062-1.067 1.062h-19.74a1.065 1.065 0 0 1-1.067-1.062v-.53c0-.586.478-1.062 1.067-1.062h19.74c.589 0 1.067.476 1.067 1.062v.53z"/><path d="M21.92 64.698v3.715m2.667-18.044v5.307"/><path fill="#FFF" d="M24.054 47.715h2.134v-5.307h-2.134zm5.335 0h2.134v-5.307h-2.134z"/><path fill="#D18660" d="M68.868 21.506v-2.653c0-5.863-4.777-10.615-10.67-10.615s-10.67 4.752-10.67 10.615v2.653a2.13 2.13 0 0 0-2.134 2.123 2.13 2.13 0 0 0 2.134 2.123c.045 0 .086-.01.131-.013.768 5.111 5.187 9.035 10.539 9.035 5.352 0 9.77-3.924 10.539-9.035.045.002.086.013.131.013a2.13 2.13 0 0 0 2.134-2.123 2.13 2.13 0 0 0-2.134-2.123"/><path d="M68.868 21.506v-2.653c0-5.863-4.777-10.615-10.67-10.615s-10.67 4.752-10.67 10.615v2.653a2.13 2.13 0 0 0-2.134 2.123 2.13 2.13 0 0 0 2.134 2.123c.045 0 .086-.01.131-.013.768 5.111 5.187 9.035 10.539 9.035 5.352 0 9.77-3.924 10.539-9.035.045.002.086.013.131.013a2.13 2.13 0 0 0 2.134-2.123 2.13 2.13 0 0 0-2.134-2.123z"/><path fill="#BD704A" d="M53.396 26.017a1.33 1.33 0 0 1-1.333 1.327 1.33 1.33 0 0 1-1.334-1.327 1.33 1.33 0 0 1 1.334-1.326 1.33 1.33 0 0 1 1.333 1.326m9.604 0a1.33 1.33 0 0 0 1.333 1.327 1.33 1.33 0 0 0 1.334-1.327 1.33 1.33 0 0 0-1.334-1.326A1.33 1.33 0 0 0 63 26.017"/><path stroke="#723D3D" stroke-linecap="round" stroke-linejoin="round" stroke-width="1.27" d="M54.988 28.713c1.944 1.703 4.476 1.703 6.42 0"/><path fill="#724F3D" d="M67.906 11.23c.275-.772.39-1.46.431-1.98a.53.53 0 0 0-.214-.469.536.536 0 0 0-.514-.067 2.17 2.17 0 0 1-1.408.055 6.484 6.484 0 0 1-1.163-.454 11.728 11.728 0 0 0-7.795-2.162c-6.152.49-10.782 5.828-10.782 11.968v3.916l.59.293c.71.354 1.544-.16 1.544-.95v-.404c0-3.474 1.87-6.505 4.656-8.177.786 1.369 2.7 2.339 4.947 2.339.885 0 1.707-.164 2.443-.43.477.88 1.468 1.491 2.626 1.491 1.015 0 1.909-.467 2.436-1.175a9.475 9.475 0 0 1 2.098 5.952v.404c0 .79.835 1.304 1.544.95l.59-.293v-4.245c0-2.433-.75-4.692-2.029-6.562"/><path fill="#A86C4E" d="M46.46 20.368c0-6.14 4.63-11.479 10.783-11.967 2.922-.234 5.63.612 7.795 2.16.32.162.707.326 1.163.454.887.25 1.53-.065 1.867-.306a7.712 7.712 0 0 0 .267-1.457.531.531 0 0 0-.728-.537c-.355.14-.831.217-1.406.054a6.569 6.569 0 0 1-1.163-.453 11.716 11.716 0 0 0-7.795-2.162c-6.152.488-10.782 5.827-10.782 11.966v2.248z"/><path d="M67.906 11.23c.275-.772.39-1.46.431-1.98a.53.53 0 0 0-.214-.469.536.536 0 0 0-.514-.067 2.17 2.17 0 0 1-1.408.055 6.484 6.484 0 0 1-1.163-.454 11.728 11.728 0 0 0-7.795-2.162c-6.152.49-10.782 5.828-10.782 11.968v3.916l.59.293c.71.354 1.544-.16 1.544-.95v-.404c0-3.474 1.87-6.505 4.656-8.177.786 1.369 2.7 2.339 4.947 2.339.885 0 1.707-.164 2.443-.43.477.88 1.468 1.491 2.626 1.491 1.015 0 1.909-.467 2.436-1.175a9.475 9.475 0 0 1 2.098 5.952v.404c0 .79.835 1.304 1.544.95l.59-.293v-4.245c0-2.433-.75-4.692-2.029-6.562z"/><path stroke="#0DB2E5" stroke-linecap="round" stroke-linejoin="round" stroke-width="1.27" d="M57.131 20.976h2.134"/><path fill="#00B8F0" d="M65.667 24.69H61.4a2.13 2.13 0 0 1-2.134-2.122v-2.123c0-.293.24-.53.534-.53h6.4c.294 0 .533.237.533.53v3.184c0 .586-.478 1.062-1.067 1.062"/><path fill="#4ACFFF" d="M60.736 24.576l4.017-4.662h-4.955a.533.533 0 0 0-.533.53v2.123c0 .942.62 1.73 1.471 2.009"/><path fill="#00B8F0" d="M54.997 24.69h-4.268a1.065 1.065 0 0 1-1.067-1.06v-3.185c0-.293.239-.53.533-.53h6.402c.295 0 .534.237.534.53v2.123a2.13 2.13 0 0 1-2.134 2.123"/><path fill="#4ACFFF" d="M50.197 19.914a.532.532 0 0 0-.533.53v3.185c0 .586.478 1.062 1.067 1.062h.228l4.117-4.777h-4.879z"/><path stroke="#0DB2E5" stroke-linecap="round" stroke-linejoin="round" stroke-width="1.27" d="M54.997 24.69h-4.268a1.065 1.065 0 0 1-1.067-1.06v-3.185c0-.293.239-.53.533-.53h6.402c.295 0 .534.237.534.53v2.123a2.13 2.13 0 0 1-2.134 2.123zm6.402 0h4.268c.59 0 1.067-.475 1.067-1.06v-3.185a.532.532 0 0 0-.533-.53h-6.402a.532.532 0 0 0-.534.53v2.123a2.13 2.13 0 0 0 2.134 2.123z"/><path stroke="#4C3327" stroke-linecap="round" stroke-linejoin="round" stroke-width="1.27" d="M64.609 22.568c-.33-.624-.911-1.065-1.605-1.065-.693 0-1.275.44-1.605 1.065m-6.402 0c-.33-.624-.911-1.065-1.605-1.065-.695 0-1.275.44-1.605 1.065"/></g></svg>

<svg xmlns="http://www.w3.org/2000/svg" width="94" height="72" viewBox="0 0 94 72"><defs><linearGradient id="a" x1="50%" x2="50%" y1="0%" y2="100%"><stop offset="0%" stop-color="#F5FAFD"/><stop offset="100%" stop-color="#C5ECFF"/></linearGradient></defs><g fill="none" fill-rule="evenodd"><path fill="url(#a)" d="M89.675 43c0-23.448-19.11-42.458-42.68-42.458C23.422.542 4.312 19.552 4.312 43a42.106 42.106 0 0 0 3.803 17.514h77.756A42.09 42.09 0 0 0 89.675 43"/><path d="M8.116 60.514c6.706 14.707 21.586 24.944 38.878 24.944s32.172-10.237 38.878-24.944H8.116z"/><path fill="#D18660" d="M68.595 60.441L73.676 60.441 73.676 54.118 68.595 54.118z"/><path fill="#D18660" d="M43.189 60.441L48.27 60.441 48.27 54.118 43.189 54.118z"/><path fill="#F0F0F0" d="M58.198 35.836c-9.135 0-16.539 7.365-16.539 16.452v1.062c0 .586.478 1.061 1.067 1.061h5.335v5.838h20.274v-5.838h5.335c.589 0 1.067-.475 1.067-1.061v-1.062c0-9.087-7.404-16.452-16.539-16.452"/><path fill="#FFF" d="M58.198 35.836c-9.135 0-16.539 7.365-16.539 16.452v1.062c0 .19.05.367.138.521 1.05-8.079 7.993-14.32 16.401-14.32s15.35 6.241 16.401 14.32a1.05 1.05 0 0 0 .138-.521v-1.062c0-9.087-7.404-16.452-16.539-16.452"/><path d="M58.198 35.836c-9.135 0-16.539 7.365-16.539 16.452v1.062c0 .586.478 1.061 1.067 1.061h5.335v5.838h20.274v-5.838h5.335c.589 0 1.067-.475 1.067-1.061v-1.062c0-9.087-7.404-16.452-16.539-16.452z"/><path fill="#D18660" d="M61.933 38.489L58.198 42.205 54.463 38.489 54.463 32.652 61.933 32.652z"/><path fill="#BD704A" d="M54.463 36.352c1.185.35 2.436.545 3.735.545s2.55-.194 3.735-.545v-3.7h-7.47v3.7z"/><path d="M61.933 38.489L58.198 42.205 54.463 38.489 54.463 32.652 61.933 32.652z"/><path d="M48.061 51.96v3.716m20.274-3.715v3.715"/><path fill="#FFF" d="M58.198 42.205c3.739 2.322 2.558 1.6 3.408 2.124.5.308 1.159.16 1.473-.334 1.725-2.713 2.587-6.565 2.587-6.565l-3.733-2.656c-.566 2.845-1.494 5.499-3.735 7.43"/><path d="M58.198 42.205c3.739 2.322 2.558 1.6 3.408 2.124.5.308 1.159.16 1.473-.334 1.725-2.713 2.587-6.565 2.587-6.565l-3.733-2.656c-.566 2.845-1.494 5.499-3.735 7.43z"/><path fill="#FFF" d="M58.198 42.205c-3.739 2.322-2.558 1.6-3.408 2.124-.5.308-1.159.16-1.473-.334-1.725-2.713-2.587-6.565-2.587-6.565l3.733-2.656c.566 2.845 1.494 5.499 3.735 7.43"/><path d="M58.198 42.205c-3.739 2.322-2.558 1.6-3.408 2.124-.5.308-1.159.16-1.473-.334-1.725-2.713-2.587-6.565-2.587-6.565l3.733-2.656c.566 2.845 1.494 5.499 3.735 7.43z"/><path fill="#C08DF2" d="M58.198 41.79c-.992-.542-4.027-1.883-5.873-2.22-.565-.104-1.135.238-1.28.791-.363 1.39-.324 3.43.041 5.659a1.15 1.15 0 0 0 1.6.86c1.863-.833 4.583-2.117 5.512-2.822V41.79zm0 0c.992-.542 4.027-1.883 5.873-2.22.565-.104 1.135.238 1.28.791.363 1.39.324 3.43-.041 5.659a1.15 1.15 0 0 1-1.6.86c-1.863-.833-4.583-2.117-5.512-2.822V41.79z"/><path stroke="#9164BE" stroke-linecap="round" stroke-linejoin="round" stroke-width="1.27" d="M54.463 43.266h7.47"/><path fill="#AB77DE" d="M59.265 45.389h-2.134a.532.532 0 0 1-.534-.53v-3.185c0-.293.24-.53.534-.53h2.134c.295 0 .534.237.534.53v3.184c0 .293-.24.53-.534.53"/><path d="M58.198 45.389v14.86"/><g stroke="#008BCC" stroke-linecap="round" stroke-linejoin="round"><path d="M5.38 60.514h83.228m-88.03 0h2.668m87.496 0h2.668"/></g><path fill="#66EED1" d="M45.927 67.352c0 .586-.478 1.061-1.067 1.061H18.718a1.065 1.065 0 0 1-1.067-1.061V65.76c0-.586.478-1.062 1.067-1.062H44.86c.59 0 1.067.476 1.067 1.062v1.592z"/><path fill="#006898" d="M43.793 60.983c0 .586-.478 1.062-1.067 1.062H20.852a1.065 1.065 0 0 1-1.067-1.062v-1.592c0-.586.478-1.061 1.067-1.061h21.874c.59 0 1.067.475 1.067 1.061v1.592z"/><path fill="#804BB5" d="M43.793 54.614c0 .586-.478 1.062-1.067 1.062H21.92a1.065 1.065 0 0 1-1.067-1.062V51.43c0-.586.478-1.061 1.067-1.061h20.807c.59 0 1.067.475 1.067 1.061v3.184z"/><path fill="#00B8F0" d="M43.793 46.654c0 .586-.478 1.061-1.067 1.061H21.92a1.065 1.065 0 0 1-1.067-1.061v-3.185c0-.586.478-1.061 1.067-1.061h20.807c.59 0 1.067.475 1.067 1.061v3.185z"/><path fill="#020202" d="M16.584 69.475c0 .88 6.688 1.592 14.938 1.592s14.939-.712 14.939-1.592c0-.88-6.688-1.592-14.939-1.592-8.25 0-14.938.712-14.938 1.592" opacity=".15"/><path fill="#35C4A5" d="M44.86 66.821H18.718a1.065 1.065 0 0 1-1.067-1.061v1.592c0 .586.478 1.061 1.067 1.061H44.86c.59 0 1.067-.475 1.067-1.061V65.76c0 .586-.478 1.061-1.067 1.061"/><path fill="#0DB2E5" d="M42.726 58.33H20.852c-.589 0-1.067.475-1.067 1.061v1.592c0-.586.478-1.061 1.067-1.061h21.874c.59 0 1.067.475 1.067 1.061v-1.592c0-.586-.478-1.061-1.067-1.061"/><path fill="#66EED1" d="M42.726 50.369H21.92c-.589 0-1.067.475-1.067 1.061v2.123c0-.586.478-1.061 1.067-1.061h20.807c.59 0 1.067.475 1.067 1.061V51.43c0-.586-.478-1.061-1.067-1.061"/><path fill="#4ACFFF" d="M42.726 42.408H21.92c-.589 0-1.067.475-1.067 1.061v2.123c0-.586.478-1.061 1.067-1.061h20.807c.59 0 1.067.475 1.067 1.061V43.47c0-.586-.478-1.061-1.067-1.061"/><path d="M43.793 46.654c0 .586-.478 1.061-1.067 1.061H21.92a1.065 1.065 0 0 1-1.067-1.061v-3.185c0-.586.478-1.061 1.067-1.061h20.807c.59 0 1.067.475 1.067 1.061v3.185z"/><path fill="#B973FF" d="M43.793 63.637c0 .586-.478 1.061-1.067 1.061H20.852a1.065 1.065 0 0 1-1.067-1.061v-.53c0-.587.478-1.062 1.067-1.062h21.874c.59 0 1.067.475 1.067 1.061v.53z"/><path fill="#35C4A5" d="M42.726 57.268c0 .586-.478 1.062-1.067 1.062H20.852a1.065 1.065 0 0 1-1.067-1.062v-.53c0-.587.478-1.062 1.067-1.062H41.66c.59 0 1.067.475 1.067 1.061v.531z"/><path fill="#00DFEB" d="M41.66 49.307c0 .586-.479 1.062-1.068 1.062h-19.74a1.065 1.065 0 0 1-1.067-1.062v-.53c0-.586.478-1.062 1.067-1.062h19.74c.59 0 1.067.476 1.067 1.062v.53z"/><path fill="#804BB5" d="M40.059 41.346c0 .586-.478 1.062-1.067 1.062h-19.74a1.065 1.065 0 0 1-1.067-1.062v-.53c0-.586.478-1.062 1.067-1.062h19.74c.589 0 1.067.476 1.067 1.062v.53z"/><path d="M21.92 64.698v3.715m2.667-18.044v5.307"/><path fill="#FFF" d="M24.054 47.715L26.188 47.715 26.188 42.408 24.054 42.408z"/><path fill="#FFF" d="M29.389 47.715L31.523 47.715 31.523 42.408 29.389 42.408z"/><path fill="#D18660" d="M68.868 21.506v-2.653c0-5.863-4.777-10.615-10.67-10.615s-10.67 4.752-10.67 10.615v2.653a2.13 2.13 0 0 0-2.134 2.123 2.13 2.13 0 0 0 2.134 2.123c.045 0 .086-.01.131-.013.768 5.111 5.187 9.035 10.539 9.035 5.352 0 9.77-3.924 10.539-9.035.045.002.086.013.131.013a2.13 2.13 0 0 0 2.134-2.123 2.13 2.13 0 0 0-2.134-2.123"/><path d="M68.868 21.506v-2.653c0-5.863-4.777-10.615-10.67-10.615s-10.67 4.752-10.67 10.615v2.653a2.13 2.13 0 0 0-2.134 2.123 2.13 2.13 0 0 0 2.134 2.123c.045 0 .086-.01.131-.013.768 5.111 5.187 9.035 10.539 9.035 5.352 0 9.77-3.924 10.539-9.035.045.002.086.013.131.013a2.13 2.13 0 0 0 2.134-2.123 2.13 2.13 0 0 0-2.134-2.123z"/><path fill="#BD704A" d="M53.396 26.017a1.33 1.33 0 0 1-1.333 1.327 1.33 1.33 0 0 1-1.334-1.327 1.33 1.33 0 0 1 1.334-1.326 1.33 1.33 0 0 1 1.333 1.326m9.604 0a1.33 1.33 0 0 0 1.333 1.327 1.33 1.33 0 0 0 1.334-1.327 1.33 1.33 0 0 0-1.334-1.326A1.33 1.33 0 0 0 63 26.017"/><path stroke="#723D3D" stroke-linecap="round" stroke-linejoin="round" stroke-width="1.27" d="M54.988 28.713c1.944 1.703 4.476 1.703 6.42 0"/><path fill="#724F3D" d="M67.906 11.23c.275-.772.39-1.46.431-1.98a.53.53 0 0 0-.214-.469.536.536 0 0 0-.514-.067 2.17 2.17 0 0 1-1.408.055 6.484 6.484 0 0 1-1.163-.454 11.728 11.728 0 0 0-7.795-2.162c-6.152.49-10.782 5.828-10.782 11.968v3.916l.59.293c.71.354 1.544-.16 1.544-.95v-.404c0-3.474 1.87-6.505 4.656-8.177.786 1.369 2.7 2.339 4.947 2.339.885 0 1.707-.164 2.443-.43.477.88 1.468 1.491 2.626 1.491 1.015 0 1.909-.467 2.436-1.175a9.475 9.475 0 0 1 2.098 5.952v.404c0 .79.835 1.304 1.544.95l.59-.293v-4.245c0-2.433-.75-4.692-2.029-6.562"/><path fill="#A86C4E" d="M46.46 20.368c0-6.14 4.63-11.479 10.783-11.967 2.922-.234 5.63.612 7.795 2.16.32.162.707.326 1.163.454.887.25 1.53-.065 1.867-.306a7.712 7.712 0 0 0 .267-1.457.531.531 0 0 0-.728-.537c-.355.14-.831.217-1.406.054a6.569 6.569 0 0 1-1.163-.453 11.716 11.716 0 0 0-7.795-2.162c-6.152.488-10.782 5.827-10.782 11.966v2.248z"/><path d="M67.906 11.23c.275-.772.39-1.46.431-1.98a.53.53 0 0 0-.214-.469.536.536 0 0 0-.514-.067 2.17 2.17 0 0 1-1.408.055 6.484 6.484 0 0 1-1.163-.454 11.728 11.728 0 0 0-7.795-2.162c-6.152.49-10.782 5.828-10.782 11.968v3.916l.59.293c.71.354 1.544-.16 1.544-.95v-.404c0-3.474 1.87-6.505 4.656-8.177.786 1.369 2.7 2.339 4.947 2.339.885 0 1.707-.164 2.443-.43.477.88 1.468 1.491 2.626 1.491 1.015 0 1.909-.467 2.436-1.175a9.475 9.475 0 0 1 2.098 5.952v.404c0 .79.835 1.304 1.544.95l.59-.293v-4.245c0-2.433-.75-4.692-2.029-6.562z"/><path stroke="#0DB2E5" stroke-linecap="round" stroke-linejoin="round" stroke-width="1.27" d="M57.131 20.976h2.134"/><path fill="#00B8F0" d="M65.667 24.69H61.4a2.13 2.13 0 0 1-2.134-2.122v-2.123c0-.293.24-.53.534-.53H66.2c.294 0 .533.237.533.53v3.184c0 .586-.478 1.062-1.067 1.062"/><path fill="#4ACFFF" d="M60.736 24.576l4.017-4.662h-4.955a.533.533 0 0 0-.533.53v2.123c0 .942.62 1.73 1.471 2.009"/><path fill="#00B8F0" d="M54.997 24.69h-4.268a1.065 1.065 0 0 1-1.067-1.06v-3.185c0-.293.239-.53.533-.53h6.402c.295 0 .534.237.534.53v2.123a2.13 2.13 0 0 1-2.134 2.123"/><path fill="#4ACFFF" d="M50.197 19.914a.532.532 0 0 0-.533.53v3.185c0 .586.478 1.062 1.067 1.062h.228l4.117-4.777h-4.879z"/><path stroke="#0DB2E5" stroke-linecap="round" stroke-linejoin="round" stroke-width="1.27" d="M54.997 24.69h-4.268a1.065 1.065 0 0 1-1.067-1.06v-3.185c0-.293.239-.53.533-.53h6.402c.295 0 .534.237.534.53v2.123a2.13 2.13 0 0 1-2.134 2.123zm6.402 0h4.268c.59 0 1.067-.475 1.067-1.06v-3.185a.532.532 0 0 0-.533-.53h-6.402a.532.532 0 0 0-.534.53v2.123a2.13 2.13 0 0 0 2.134 2.123z"/><path stroke="#4C3327" stroke-linecap="round" stroke-linejoin="round" stroke-width="1.27" d="M64.609 22.568c-.33-.624-.911-1.065-1.605-1.065-.693 0-1.275.44-1.605 1.065m-6.402 0c-.33-.624-.911-1.065-1.605-1.065-.695 0-1.275.44-1.605 1.065"/></g></svg>
